Otagle3/Assets/ikonySvG/WyrownajTabeleDoGranicyTekstu.svg

<?xml version="1.0" encoding="UTF-8" standalone="no"?>
<svg
   xmlns:dc="http://purl.org/dc/elements/1.1/"
   xmlns:cc="http://creativecommons.org/ns#"
   xmlns:rdf="http://www.w3.org/1999/02/22-rdf-syntax-ns#"
   xmlns:svg="http://www.w3.org/2000/svg"
   xmlns="http://www.w3.org/2000/svg"
   id="svg47"
   version="1.1"
   viewBox="0 0 52.758294 52.758296"
   height="199.40143"
   width="199.40143">
  <defs
     id="defs42">
    <pattern
       id="EMFhbasepattern"
       patternUnits="userSpaceOnUse"
       width="6"
       height="6"
       x="0"
       y="0" />
  </defs>
  <metadata
     id="metadata45">
    <rdf:RDF>
      <cc:Work
         rdf:about="">
        <dc:format>image/svg+xml</dc:format>
        <dc:type
           rdf:resource="http://purl.org/dc/dcmitype/StillImage" />
        <dc:title></dc:title>
      </cc:Work>
    </rdf:RDF>
  </metadata>
  <g
     id="g8379"
     transform="translate(176.02442,-369.33563)">
    <rect
       height="52.258293"
       y="369.54422"
       x="-175.54404"
       width="52.258293"
       id="rect833-1-5-3-7-4"
       style="fill:#ffffff;stroke:#000000;stroke-width:0.49999899;stroke-linecap:round;stroke-miterlimit:4;stroke-dasharray:none;stroke-opacity:1;paint-order:fill markers stroke" />
    <text
       id="text898-7-3-6-8-3"
       y="413.06262"
       x="-149.30972"
       style="font-size:6.3499999px;line-height:0.94999999;font-family:voestalpine;-inkscape-font-specification:voestalpine;text-align:center;letter-spacing:0px;word-spacing:0px;text-anchor:middle;stroke-width:0.26458299"
       xml:space="preserve"><tspan
         id="tspan1534-0"
         style="font-size:6.3499999px;text-align:center;text-anchor:middle;stroke-width:0.26458299"
         y="413.06262"
         x="-149.30972">Wyrównaj tabelę</tspan><tspan
         style="font-size:6.3499999px;text-align:center;text-anchor:middle;stroke-width:0.26458299"
         y="419.09512"
         x="-149.30972"
         id="tspan1396">do granicy tekstu</tspan></text>
    <g
       id="g5132">
      <g
         transform="matrix(1.2279503,0,0,1.2279503,37.788462,-85.237843)"
         id="g1392">
        <g
           style="fill:#000000"
           id="g1206-7"
           transform="matrix(0.08544998,0,0,0.15804113,-158.22433,380.02437)">
          <g
             id="g1187-4">
            <path
               id="path1171-1"
               d="M 87.059,13.325 H 67.941 66.175 45.883 44.117 23.824 22.058 2.941 C 1.317,13.325 0,14.642 0,16.266 v 12.455 1.766 13.63 1.766 13.631 1.765 12.455 c 0,1.625 1.317,2.941 2.941,2.941 h 19.118 1.766 20.293 1.766 20.293 1.766 19.117 c 1.624,0 2.941,-1.316 2.941,-2.941 V 61.278 59.513 45.883 44.117 30.487 28.721 16.266 C 90,14.642 88.683,13.325 87.059,13.325 Z M 44.117,30.487 v 13.63 H 23.824 V 30.487 Z M 23.824,28.721 v -13.63 h 20.293 v 13.63 z M 44.117,45.883 V 59.514 H 23.824 V 45.883 Z m 0,15.395 V 74.909 H 23.824 V 61.278 Z M 66.176,45.883 V 59.514 H 45.883 V 45.883 Z M 45.883,44.117 v -13.63 h 20.293 v 13.63 z M 66.176,61.278 V 74.909 H 45.883 V 61.278 Z m 0,-32.557 H 45.883 V 15.091 H 66.176 Z M 1.765,16.266 c 0,-0.647 0.525,-1.172 1.172,-1.175 h 19.122 v 13.63 H 1.765 Z m 0,14.221 h 20.294 v 13.63 H 1.765 Z m 0,15.396 H 22.059 V 59.514 H 1.765 Z m 0,27.85 V 61.278 H 22.059 V 74.909 H 2.937 C 2.29,74.906 1.765,74.381 1.765,73.733 Z m 86.469,0 c 0,0.647 -0.524,1.173 -1.172,1.176 H 67.941 V 61.278 h 20.293 z m 0,-14.219 H 67.941 V 45.883 h 20.293 z m 0,-15.397 H 67.941 v -13.63 h 20.293 z m 0,-15.396 H 67.941 v -13.63 h 19.121 c 0.647,0.003 1.172,0.528 1.172,1.175 z" />
            <path
               id="path1173-6"
               d="M 17.813,18.121 H 6.012 c -0.487,0 -0.883,0.396 -0.883,0.883 v 5.805 c 0,0.487 0.396,0.883 0.883,0.883 h 11.801 c 0.487,0 0.883,-0.396 0.883,-0.883 V 19.004 C 18.695,18.516 18.3,18.121 17.813,18.121 Z" />
            <path
               id="path1175-5"
               d="M 17.813,33.517 H 6.012 c -0.487,0 -0.883,0.394 -0.883,0.882 v 5.805 c 0,0.487 0.396,0.882 0.883,0.882 h 11.801 c 0.487,0 0.883,-0.395 0.883,-0.882 V 34.399 C 18.695,33.911 18.3,33.517 17.813,33.517 Z" />
            <path
               id="path1177-6"
               d="M 17.813,48.913 H 6.012 c -0.487,0 -0.883,0.395 -0.883,0.883 v 5.805 c 0,0.487 0.396,0.883 0.883,0.883 h 11.801 c 0.487,0 0.883,-0.396 0.883,-0.883 V 49.796 C 18.695,49.308 18.3,48.913 17.813,48.913 Z" />
            <path
               id="path1179-6"
               d="M 17.813,64.309 H 6.012 c -0.487,0 -0.883,0.395 -0.883,0.883 v 5.805 c 0,0.487 0.396,0.883 0.883,0.883 h 11.801 c 0.487,0 0.883,-0.396 0.883,-0.883 V 65.192 C 18.695,64.703 18.3,64.309 17.813,64.309 Z" />
            <path
               id="path1181-6"
               d="M 39.871,18.121 H 28.07 c -0.487,0 -0.883,0.396 -0.883,0.883 v 5.805 c 0,0.487 0.396,0.883 0.883,0.883 h 11.801 c 0.487,0 0.883,-0.396 0.883,-0.883 v -5.805 c 0,-0.488 -0.396,-0.883 -0.883,-0.883 z" />
            <path
               id="path1183-3"
               d="M 50.129,25.691 H 61.93 c 0.487,0 0.883,-0.396 0.883,-0.883 v -5.805 c 0,-0.487 -0.396,-0.883 -0.883,-0.883 H 50.129 c -0.487,0 -0.883,0.396 -0.883,0.883 v 5.805 c 0,0.487 0.396,0.883 0.883,0.883 z" />
            <path
               id="path1185-5"
               d="m 83.988,18.121 h -11.8 c -0.487,0 -0.883,0.396 -0.883,0.883 v 5.805 c 0,0.487 0.396,0.883 0.883,0.883 h 11.801 c 0.487,0 0.883,-0.396 0.883,-0.883 v -5.805 c -0.001,-0.488 -0.396,-0.883 -0.884,-0.883 z" />
          </g>
        </g>
        <path
           style="fill:#000000;stroke-width:0.206706"
           d="m -144.39038,396.3593 v -18.16943 l -4.71289,-4.25814 h -10.68668 c -0.39274,0 -0.72347,0.33073 -0.72347,0.72347 v 21.7041 c 0,0.39274 0.33073,0.72347 0.72347,0.72347 h 14.6761 c 0.39274,0 0.72347,-0.33073 0.72347,-0.72347 z m -4.54752,-21.16667 3.18327,2.87321 h -2.9559 c -0.12402,0 -0.22737,-0.10335 -0.22737,-0.22737 z m -10.7487,21.06332 v -21.4974 h 9.92187 v 3.07992 c 0,0.57877 0.47543,1.0542 1.0542,1.0542 h 3.49333 v 17.36328 z"
           id="path1305" />
        <g
           transform="matrix(0,13.800621,-13.800621,0,-145.67578,385.2335)"
           id="g1225-7-1"
           style="clip-rule:evenodd;fill:#000000;fill-rule:evenodd;image-rendering:optimizeQuality;shape-rendering:geometricPrecision;text-rendering:geometricPrecision">
          <polygon
             id="polygon1212-0-4"
             points="0.0336142,0.157421 0.100445,0.0905945 0.100445,0.306461 0.147984,0.306461 0.147984,0.092689 0.214819,0.159531 0.248433,0.125913 0.123807,0 0,0.123807 "
             class="fil0" />
        </g>
      </g>
    </g>
  </g>
</svg>

<svg id="SVGRoot" width="206px" height="206px" version="1.1" viewBox="0 0 206 206" xmlns="http://www.w3.org/2000/svg">
 <g transform="matrix(3.7795 0 0 3.7795 -1795.2 2502.6)">
  <flowRoot fill="black" font-family="sans-serif" font-size="40px" letter-spacing="0px" word-spacing="0px" style="line-height:1.25" xml:space="preserve"><flowRegion><rect x="-392.69" y="-63.57" width="758.02" height="397.52"/></flowRegion><flowPara/></flowRoot>
  <flowRoot fill="black" font-family="sans-serif" font-size="40px" letter-spacing="0px" word-spacing="0px" style="line-height:1.25" xml:space="preserve"><flowRegion><rect x="-251.87" y="-84.492" width="624.44" height="455.45"/></flowRegion><flowPara/></flowRoot>
  <flowRoot fill="black" font-family="sans-serif" font-size="40px" letter-spacing="0px" word-spacing="0px" style="line-height:1.25" xml:space="preserve"><flowRegion><rect x="-202.78" y="-50.695" width="473.96" height="281.64"/></flowRegion><flowPara/></flowRoot>
  <flowRoot fill="black" font-family="sans-serif" font-size="40px" letter-spacing="0px" word-spacing="0px" style="line-height:1.25" xml:space="preserve"><flowRegion><rect x="-86.906" y="-78.859" width="516.61" height="410.39"/></flowRegion><flowPara/></flowRoot>
  <flowRoot fill="black" font-family="sans-serif" font-size="40px" letter-spacing="0px" word-spacing="0px" style="line-height:1.25" xml:space="preserve"><flowRegion><rect x="-81.273" y="-32.188" width="309" height="322.68"/></flowRegion><flowPara/></flowRoot>
  <flowRoot fill="black" font-family="sans-serif" font-size="40px" letter-spacing="0px" word-spacing="0px" style="line-height:1.25" xml:space="preserve"><flowRegion><rect x="-90.93" y="-68.398" width="392.69" height="252.67"/></flowRegion><flowPara/></flowRoot>
  <g transform="translate(675.17 -.21291)">
   <flowRoot fill="black" font-family="sans-serif" font-size="40px" letter-spacing="0px" word-spacing="0px" style="line-height:1.25" xml:space="preserve"><flowRegion><rect x="-100.59" y="-53.109" width="462.7" height="369.35"/></flowRegion><flowPara/></flowRoot>
   <g transform="translate(57.194 .21291)">
    <flowRoot fill="black" font-family="sans-serif" font-size="40px" letter-spacing="0px" word-spacing="0px" style="line-height:1.25" xml:space="preserve"><flowRegion><rect x="-329.12" y="-12.07" width="696.05" height="259.91"/></flowRegion><flowPara/></flowRoot>
    <g transform="translate(-1495.1 -629.38)">
     <flowRoot fill="black" font-family="sans-serif" font-size="40px" letter-spacing="0px" word-spacing="0px" style="line-height:1.25" xml:space="preserve"><flowRegion><rect x="-306.59" y="-111.05" width="206" height="51.5"/></flowRegion><flowPara/></flowRoot>
     <flowRoot fill="black" font-family="sans-serif" font-size="40px" letter-spacing="0px" word-spacing="0px" style="line-height:1.25" xml:space="preserve"><flowRegion><rect x="-70.812" y="-36.211" width="362.91" height="283.25"/></flowRegion><flowPara/></flowRoot>
     <g transform="translate(766.88 -400.75)">
      <g transform="translate(647.7 -.63872)">
       <rect x="-175.54" y="369.54" width="52.258" height="52.258" fill="#fff" stroke="#000" stroke-linecap="round" stroke-width=".5" style="paint-order:fill markers stroke"/>
       <text x="-149.30972" y="411.85242" font-family="sans-serif" font-size="4.9389px" letter-spacing="0px" stroke-width=".26458" text-align="center" text-anchor="middle" word-spacing="0px" style="line-height:0.94999999" xml:space="preserve"><tspan x="-149.30972" y="411.85242" text-align="center">Wyrównaj tabelę</tspan><tspan x="-149.30972" y="417.88492" text-align="center">do granicy tekstu</tspan></text>
       <g transform="matrix(1.228 0 0 1.228 37.788 -85.238)">
        <g transform="matrix(.08545 0 0 .15804 -158.22 380.02)">
         <path d="m87.059 13.325h-84.118c-1.624 0-2.941 1.317-2.941 2.941v57.468c0 1.625 1.317 2.941 2.941 2.941h84.119c1.624 0 2.941-1.316 2.941-2.941v-57.468c-.001-1.624-1.318-2.941-2.942-2.941zm-42.942 17.162v13.63h-20.293v-13.63zm-20.293-1.766v-13.63h20.293v13.63zm20.293 17.162v13.631h-20.293v-13.631zm0 15.395v13.631h-20.293v-13.631zm22.059-15.395v13.631h-20.293v-13.631zm-20.293-1.766v-13.63h20.293v13.63zm20.293 17.161v13.631h-20.293v-13.631zm0-32.557h-20.293v-13.63h20.293zm-64.411-12.455c0-.647.525-1.172 1.172-1.175h19.122v13.63h-20.294zm0 14.221h20.294v13.63h-20.294zm0 15.396h20.294v13.631h-20.294zm0 27.85v-12.455h20.294v13.631h-19.122c-.647-.003-1.172-.528-1.172-1.176zm86.469 0c0 .647-.524 1.173-1.172 1.176h-19.121v-13.631h20.293zm0-14.219h-20.293v-13.631h20.293zm0-15.397h-20.293v-13.63h20.293zm0-15.396h-20.293v-13.63h19.121c.647.003 1.172.528 1.172 1.175z"/>
         <path d="m17.813 18.121h-11.801c-.487 0-.883.396-.883.883v5.805c0 .487.396.883.883.883h11.801c.487 0 .883-.396.883-.883v-5.805c-.001-.488-.396-.883-.883-.883z"/>
         <path d="m17.813 33.517h-11.801c-.487 0-.883.394-.883.882v5.805c0 .487.396.882.883.882h11.801c.487 0 .883-.395.883-.882v-5.805c-.001-.488-.396-.882-.883-.882z"/>
         <path d="m17.813 48.913h-11.801c-.487 0-.883.395-.883.883v5.805c0 .487.396.883.883.883h11.801c.487 0 .883-.396.883-.883v-5.805c-.001-.488-.396-.883-.883-.883z"/>
         <path d="m17.813 64.309h-11.801c-.487 0-.883.395-.883.883v5.805c0 .487.396.883.883.883h11.801c.487 0 .883-.396.883-.883v-5.805c-.001-.489-.396-.883-.883-.883z"/>
         <path d="m39.871 18.121h-11.801c-.487 0-.883.396-.883.883v5.805c0 .487.396.883.883.883h11.801c.487 0 .883-.396.883-.883v-5.805c0-.488-.396-.883-.883-.883z"/>
         <path d="m50.129 25.691h11.801c.487 0 .883-.396.883-.883v-5.805c0-.487-.396-.883-.883-.883h-11.801c-.487 0-.883.396-.883.883v5.805c0 .487.396.883.883.883z"/>
         <path d="m83.988 18.121h-11.8c-.487 0-.883.396-.883.883v5.805c0 .487.396.883.883.883h11.801c.487 0 .883-.396.883-.883v-5.805c-.001-.488-.396-.883-.884-.883z"/>
        </g>
        <path d="m-144.39 396.36v-18.169l-4.7129-4.2581h-10.687c-.39274 0-.72347.33073-.72347.72347v21.704c0 .39274.33073.72347.72347.72347h14.676c.39274 0 .72347-.33073.72347-.72347zm-4.5475-21.167 3.1833 2.8732h-2.9559c-.12402 0-.22737-.10335-.22737-.22737zm-10.749 21.063v-21.497h9.9219v3.0799c0 .57877.47543 1.0542 1.0542 1.0542h3.4933v17.363z" stroke-width=".20671"/>
        <g transform="matrix(0 13.801 -13.801 0 -145.68 385.23)" clip-rule="evenodd" fill-rule="evenodd" image-rendering="optimizeQuality" shape-rendering="geometricPrecision">
         <polygon class="fil0" points=".10044 .30646 .14798 .30646 .14798 .092689 .21482 .15953 .24843 .12591 .12381 0 0 .12381 .033614 .15742 .10044 .090594"/>
        </g>
       </g>
      </g>
     </g>
    </g>
   </g>
  </g>
 </g>
</svg>
